svgs/sharp-light/chart-tree-map.svg

<svg xmlns="http://www.w3.org/2000/svg" viewBox="0 0 512 512"><!--! Font Awesome Pro 6.6.0 by @fontawesome - https://fontawesome.com License - https://fontawesome.com/license (Commercial License) Copyright 2024 Fonticons, Inc. --><path d="M192 64l0 144L32 208 32 64l160 0zM32 32L0 32 0 64 0 208l0 32 32 0 160 0 32 0 0-32 0-144 0-32-32 0L32 32zM192 304l0 144L32 448l0-144 160 0zM32 272L0 272l0 32L0 448l0 32 32 0 160 0 32 0 0-32 0-144 0-32-32 0L32 272zM288 64l192 0 0 64-192 0 0-64zM256 32l0 32 0 64 0 32 32 0 192 0 32 0 0-32 0-64 0-32-32 0L288 32l-32 0zM480 224l0 64-192 0 0-64 192 0zM288 192l-32 0 0 32 0 64 0 32 32 0 192 0 32 0 0-32 0-64 0-32-32 0-192 0zm0 192l192 0 0 64-192 0 0-64zm-32-32l0 32 0 64 0 32 32 0 192 0 32 0 0-32 0-64 0-32-32 0-192 0-32 0z"/></svg>

<svg xmlns="http://www.w3.org/2000/svg" viewBox="0 0 512 512"><!--! Font Awesome Pro 6.4.0 by @fontawesome - https://fontawesome.com License - https://fontawesome.com/license (Commercial License) Copyright 2023 Fonticons, Inc. --><path d="M192 64V208H32V64H192zM32 32H0V64 208v32H32 192h32V208 64 32H192 32zM192 304V448H32V304H192zM32 272H0v32V448v32H32 192h32V448 304 272H192 32zM288 64H480v64H288V64zM256 32V64v64 32h32H480h32V128 64 32H480 288 256zM480 224v64H288V224H480zM288 192H256v32 64 32h32H480h32V288 224 192H480 288zm0 192H480v64H288V384zm-32-32v32 64 32h32H480h32V448 384 352H480 288 256z"/></svg>
